src/status/24/night-light-disabled-30-symbolic.svg

<?xml version="1.0" encoding="UTF-8" standalone="no"?>
<svg
   xmlns:dc="http://purl.org/dc/elements/1.1/"
   xmlns:cc="http://creativecommons.org/ns#"
   xmlns:rdf="http://www.w3.org/1999/02/22-rdf-syntax-ns#"
   xmlns:svg="http://www.w3.org/2000/svg"
   xmlns="http://www.w3.org/2000/svg"
   version="1.1"
   width="24"
   height="24"
   id="svg4031">
  <defs
     id="defs4033" />
  <metadata
     id="metadata4036">
    <rdf:RDF>
      <cc:Work
         rdf:about="">
        <dc:format>image/svg+xml</dc:format>
        <dc:type
           rdf:resource="http://purl.org/dc/dcmitype/StillImage" />
        <dc:title></dc:title>
      </cc:Work>
    </rdf:RDF>
  </metadata>
  <path
     id="path28"
     d="M 11.25 3 C 11.111929 3 11 3.1119288 11 3.25 L 11 4.75 C 11 4.889 11.112 5 11.25 5 L 11.75 5 C 11.888071 5 12 4.8880712 12 4.75 L 12 3.25 C 12 3.1119288 11.888071 3 11.75 3 L 11.25 3 z M 5.3535156 5.2363281 L 4.4121094 6.1777344 L 8.4609375 10.226562 L 9.4023438 9.2851562 L 8.9648438 8.8476562 C 9.6429413 8.376563 10.466979 8.0804076 11.400391 8.0625 L 11.402344 8.0625 C 11.430334 8.0622361 11.458338 8.0622361 11.486328 8.0625 L 11.492188 8.0625 C 10.556172 8.7617556 10.004053 9.8609322 10.001953 11.029297 C 10.000153 13.080167 11.66202 14.743781 13.712891 14.744141 C 14.37713 14.742241 15.028697 14.56218 15.599609 14.222656 C 14.242997 17.491895 9.8002324 17.94799 7.8066406 15.023438 C 6.8260539 13.584998 6.8263105 11.89641 7.4980469 10.541016 L 6.7285156 9.7714844 C 6.266889 10.576216 6 11.506843 6 12.5 C 6 15.534712 8.465286 18 11.5 18 C 14.534708 18 17.000006 15.534712 17 12.5 C 17 9.4652894 14.534708 7 11.5 7 C 10.267286 7 9.1338225 7.4125603 8.2167969 8.0996094 L 5.3535156 5.2363281 z M 17.861328 5.53125 C 17.852828 5.5314693 17.844368 5.5321243 17.835938 5.5332031 C 17.779708 5.5397831 17.727369 5.5652658 17.6875 5.6054688 L 16.626953 6.3636360156 C 16.528663 6.7643036 16.529373 6.9219506 16.626953 7.0195312 L 16.980469 7.3730469 C 17.078099 7.4706519 17.236357 7.4706519 17.333984 7.3730469 L 18.394531 6.3125 C 18.492141 6.214873 18.492141 6.0566111 18.394531 5.9589844 L 18.041016 5.6054688 C 17.993586 5.5574994 17.928784 5.5307335 17.861328 5.53125 z M 2.25 12 C 2.1119288 12 2 12.111929 2 12.25 L 2 12.75 C 2 12.889 2.112 13 2.25 13 L 3.75 13 C 3.8880712 13 4 12.888071 4 12.75 L 4 12.25 C 4 12.111929 3.8880712 12 3.75 12 L 2.25 12 z M 19.25 12 C 19.111929 12 19 12.111929 19 12.25 L 19 12.75 C 19 12.889 19.112 13 19.25 13 L 20.75 13 C 20.888071 13 21 12.888071 21 12.75 L 21 12.25 C 21 12.111929 20.888071 12 20.75 12 L 19.25 12 z M 5.8398438 17.552734 C 5.7744207 17.553734 5.7120133 17.580413 5.3636360156 17.626953 L 4.6054688 18.6875 C 4.5071807 18.78579 4.5078878 18.943435 4.6054688 19.041016 L 4.9589844 19.394531 C 5.0566114 19.492141 5.2148733 19.492141 5.3125 19.394531 L 6.3730469 18.333984 C 6.4706519 18.236354 6.4706519 18.078096 6.3730469 17.980469 L 6.0195312 17.626953 C 5.9721022 17.578983 5.9072999 17.552214 5.8398438 17.552734 z M 17.152344 17.552734 C 17.087604 17.554234 17.025985 17.580883 16.980469 17.626953 L 16.626953 17.980469 C 16.528663 18.078759 16.529373 18.236403 16.626953 18.333984 L 17.6875 19.394531 C 17.78513 19.492141 17.943389 19.492141 18.041016 19.394531 L 18.394531 19.041016 C 18.492141 18.943386 18.492141 18.785127 18.394531 18.6875 L 17.333984 17.626953 C 17.286084 17.578493 17.220475 17.551684 17.152344 17.552734 z M 11.25 20 C 11.111929 20 11 20.111929 11 20.25 L 11 21.75 C 11 21.889 11.112 22 11.25 22 L 11.75 22 C 11.888071 22 12 21.888071 12 21.75 L 12 20.25 C 12 20.111929 11.888071 20 11.75 20 L 11.25 20 z "
     style="color:#000000;display:inline;overflow:visible;visibility:visible;opacity:1;vector-effect:none;fill:#363636;fill-opacity:1;fill-rule:nonzero;stroke:none;stroke-width:1;stroke-linecap:butt;stroke-linejoin:miter;stroke-miterlimit:4;stroke-dasharray:none;stroke-dashoffset:0;stroke-opacity:1;marker:none;enable-background:accumulate" />
</svg>

<svg xmlns="http://www.w3.org/2000/svg" width="24" height="24">
    <path d="M11.25 3a.25.25 0 0 0-.25.25v1.5c0 .139.112.25.25.25h.5a.25.25 0 0 0 .25-.25v-1.5a.25.25 0 0 0-.25-.25h-.5zM5.354 5.236l-.942.942 4.049 4.049.941-.942-.437-.437a4.375 4.375 0 0 1 2.435-.786H11.492a3.712 3.712 0 0 0-1.49 2.967 3.712 3.712 0 0 0 3.71 3.715 3.712 3.712 0 0 0 1.888-.521c-1.357 3.269-5.8 3.725-7.793.8-.98-1.438-.98-3.127-.309-4.482l-.77-.77A5.466 5.466 0 0 0 6 12.5c0 3.035 2.465 5.5 5.5 5.5s5.5-2.465 5.5-5.5S14.535 7 11.5 7a5.455 5.455 0 0 0-3.283 1.1L5.354 5.236zm12.507.295a.25.25 0 0 0-.174.074l-1.06.759c-.098.4-.098.558 0 .656l.353.353a.25.25 0 0 0 .354 0l1.06-1.06a.25.25 0 0 0 0-.354l-.353-.354a.25.25 0 0 0-.18-.074zM2.25 12a.25.25 0 0 0-.25.25v.5c0 .139.112.25.25.25h1.5a.25.25 0 0 0 .25-.25v-.5a.25.25 0 0 0-.25-.25h-1.5zm17 0a.25.25 0 0 0-.25.25v.5c0 .139.112.25.25.25h1.5a.25.25 0 0 0 .25-.25v-.5a.25.25 0 0 0-.25-.25h-1.5zM5.84 17.553c-.066 0-.128.027-.476.074l-.759 1.06a.25.25 0 0 0 0 .354l.354.354a.25.25 0 0 0 .354 0l1.06-1.061a.25.25 0 0 0 0-.354l-.353-.353a.25.25 0 0 0-.18-.074zm11.312 0a.25.25 0 0 0-.172.074l-.353.353a.25.25 0 0 0 0 .354l1.06 1.06a.25.25 0 0 0 .354 0l.354-.353a.25.25 0 0 0 0-.354l-1.061-1.06a.25.25 0 0 0-.182-.074zM11.25 20a.25.25 0 0 0-.25.25v1.5c0 .139.112.25.25.25h.5a.25.25 0 0 0 .25-.25v-1.5a.25.25 0 0 0-.25-.25h-.5z" style="color:#000;display:inline;overflow:visible;visibility:visible;opacity:1;vector-effect:none;fill:#050505;fill-opacity:.7;fill-rule:nonzero;stroke:none;stroke-width:1;stroke-linecap:butt;stroke-linejoin:miter;stroke-miterlimit:4;stroke-dasharray:none;stroke-dashoffset:0;stroke-opacity:1;marker:none;enable-background:accumulate"/>
</svg>
